X:1
T:Toccata and Fugue in D Minor
T: J.S.Bach Toccata and Fugue in D Minor BWV 565 
T:Johann Sebastian Bach 
C:Johann Sebastian Bach(1685 - 1750)
%%score { ( 1 5 6 7 ) | ( 2 3 8 ) | ( 4 9 ) }
L:1/8
Q:1/4=25
M:4/4
K:F
V:1 treble nm="Organ"
V:5 treble 
V:6 treble 
V:7 treble 
V:2 bass 
V:3 bass 
V:8 bass 
V:4 bass 
V:9 bass 
V:1
"^Adagio" !fermata!Ma z/4 g/8f/8e/8d/8^c/4 d/ !fermata!z/ z !fermata!MA z/4 E/4F/4^C/4 D/ !fermata!z/ z | %1
[I:staff +1] !fermata!MA,[I:staff -1] z/4[I:staff +1] G,/8F,/8E,/8D,/8^C,/4 D,/[I:staff -1] !fermata!z/ z (7:2:5z2 x6 B,2- ^C2- E2- | %2
 [CE]2[Q:1/4=20]"^20" D2[Q:1/4=25]"^25" z2 z z/ ^C/[Q:1/4=15]"^15"[Q:1/4=10]"^10" | %3
[Q:1/4=70]"^Prestissimo" (3D/E/^C/ (3D/E/C/ (3D/E/C/ D/E/ (3F/G/E/ (3F/G/E/ (3F/G/E/ F/G/ | %4
[Q:1/4=65]"^65" (3A/B/G/[Q:1/4=60]"^60" (3A/B/G/[Q:1/4=55]"^55" (3A/B/G/[Q:1/4=25]"^25" A/ !fermata!z/[Q:1/4=70]"^70" z2 z z/ ^c/ | %5
 (3d/e/^c/ (3d/e/c/ (3d/e/c/ d/e/ (3f/g/e/ (3f/g/e/ (3f/g/e/ f/g/ | %6
[Q:1/4=65]"^65" (3a/b/g/[Q:1/4=60]"^60" (3a/b/g/[Q:1/4=55]"^55" (3a/b/g/[Q:1/4=25]"^25" a/ !fermata!z/[Q:1/4=70]"^70" z2 z z/ a/ | %7
 (3g/b/e/ (3g/b/e/ (3f/a/d/ (3f/a/d/ (3e/g/c/ (3e/g/c/ (3d/f/B/ (3d/f/B/ | %8
 (3c/e/A/ (3c/e/A/ (3B/d/G/ (3B/d/G/ (3A/c/F/ (3A/c/F/ (3G/B/E/ (3G/B/E/ | %9
 (3F/A/D/ (3F/A/D/[Q:1/4=65]"^65" (3E/G/^C/[Q:1/4=60]"^60" (3E/G/C/ z2[Q:1/4=70]"^70" B2- | %10
 B2- B/4A/4G/4F/4E/4 D/4^C/4=B,/4 C/A,/C/ E/4G/4 TF>[Q:1/4=60][Q:1/4=40]"^40"E | %11
[Q:1/4=20]"^20" !fermata!F2[Q:1/4=60]"^60" z z/[Q:1/4=56]"^56" A/ d/e/f/d/ e/f/g/e/ | %12
 f/g/a/f/ g/a/b/g/ a/f/g/e/ f/d/e/^c/ | d/A/B/G/ A/F/G/E/ F/D/G/E/ F/D/E/^C/ | %14
[K:bass] D/A,/B,/G,/ A,/F,/G,/E,/ F,/D,/G,/E,/ F,/D,/E,/^C,/ | %15
 D,[K:treble] x/4 F/4B/4F/4 x/4 E/4A/4E/4 x/4 D/4G/4D/4 x/ E/4A/4[Q:1/4=48]"^48" z/ [FB]/[Q:1/4=46]"^46" z/ [EA]/[Q:1/4=44]"^44" z/ [DG]/ | %16
[Q:1/4=40]"^40" [EA][Q:1/4=56]"^56" x/4 F/4B/4F/4 x/4 E/4A/4E/4 x/4 D/4G/4D/4 x/ E/4A/4[Q:1/4=48]"^48" z/ [FB]/[Q:1/4=46]"^46" z/ [EA]/ z/[Q:1/4=44]"^44" [DG]/ | %17
[Q:1/4=40]"^40" A2-[Q:1/4=56]"^56" A/4G/4F/4E/4 D/4^C/4=B,/4C/4 A,/4=B,/4^C/4D/4 E/4F/4G/4A/4G/4F/4E/4F/4 D/4F/4 A/4^c/4 | %18
 d/4 x/4 x/ x/4 e/4f/8g/8a/4_b[Q:1/4=48]"^48" z/ [fb]/[Q:1/4=46]"^46" z/ [ea]/[Q:1/4=44]"^44" z/ [dg]/[Q:1/4=40]"^40" [^cea][Q:1/4=56]"^56" x/4 f/4b/4f/4 | %19
 x/4 e/4a/4e/4 x/4 d/4g/4d/4 x/ e/4a/4[Q:1/4=48]"^48" z/ [fb]/[Q:1/4=46]"^46" z/ [ea]/[Q:1/4=44]"^44" z/ [dg]/[Q:1/4=40]"^40" [^cea][F=B] | %20
 ^c>[Q:1/4=48]"^48"=B A/[Q:1/4=46]"^46"^c/ e/4[Q:1/4=44]"^44"g/4[Q:1/4=34]"^34"_b/[Q:1/4=56]"^56" a/4g/4f/4e/4f/4e/4d/4^c/4 d/4=c/4_B/4A/4 G/4F/4E/4D/4 | %21
 e4[Q:1/4=75]"^Prestissimo" (3c/e/^c/ (3B/c/B/ (3c/e/c/ (3B/c/B/ | %22
 (3^c/e/c/ (3B/c/B/ (3c/e/c/ (3B/c/B/ (3G/B/G/ (3E/G/E/ (3G/B/G/ (3E/G/E/ | %23
 (3G/B/G/ (3E/G/E/ (3G/B/G/ (3E/G/E/ (3^C/E/C/ (3B,/C/B,/ (3C/E/C/ (3B,/C/B,/ | %24
 (3^C/E/C/ (3B,/C/B,/ (3C/E/C/ (3B,/C/B,/ (3C/E/C/ (3E/G/E/ (3C/E/C/ (3E/G/E/ | %25
 (3^C/E/C/ (3E/G/E/ (3C/E/C/ (3E/G/E/ (3G/B/G/ (3B/G/B/ (3G/B/G/ (3B/G/B/ | %26
[Q:1/4=72]"^72" (3^c/B/c/[Q:1/4=68]"^68" (3e/c/e/[Q:1/4=64]"^64" (3c/e/c/[Q:1/4=60]"^60" (3e/c/e/[Q:1/4=56]"^56" [A^cea]2 [Adfa]2 | %27
 [Bdg]2 z2[Q:1/4=50]"^50" [A^ceg]2 z2 | %28
[Q:1/4=48]"^48" z2[Q:1/4=44]"^44" z[Q:1/4=40]"^40" z/[Q:1/4=38]"^38" [A^c]/ [FAd][Q:1/4=36]"^36"F E2[Q:1/4=34] | %29
[Q:1/4=30]"^30" D4 z4[Q:1/4=26]"^26"[Q:1/4=23]"^23"[Q:1/4=20]"^20"[Q:1/4=75]"^75"[Q:1/4=92]"^Andante" | %30
 z8 | z8 | z8 | z8 | z8 | z8 | z8 | z8 | z4 z/ a/g/a/ f/a/e/a/ | %39
 d/a/^c/a/ d/a/e/a/ f/a/A/a/ =B/a/^c/a/ | d/a/^c/a/ d/a/e/a/ f/a/e/a/ d/a/=c/a/ | %41
 B/a/c/a/ d/g/B/g/ e/g/d/g/ c/g/B/g/ | A/g/B/g/ c/f/A/f/ d/f/c/f/ B/f/A/f/ | %43
 G/f/A/f/ B/e/G/e/ ^c/e/B/e/ A/e/G/e/ | F/e/G/e/ A/d/F/d/ E/e/E/e/ F/d/F/d/ | %45
 B/^c/B/c/ A/d/F/d/ E/e/E/e/ F/d/F/d/ | z/ d/^c/d/ =B/d/^c/B/ c2 z2 | %47
 z/ d/^c/d/ f/d/^c/=B/ c2 e2- | ed- d^c =c2 _B2 | A2 A2 G2 G2 | ^F A2 _e d2 z g- | g^f g2 Bddd | %52
 dddd dddd | d/g/=f/g/ e/f/d/e/ c/a/g/a/ f/g/e/f/ | d/b/a/b/ g/a/f/g/ e/c'/b/c'/ a/b/g/a/ | %55
 f/_e/d/c/ d/c/B/A/ B/d/B/A/ G/B/G/F/ | E/F/G/A/ B/d/c/B/ A2 cB | AGAB cEFG | %58
 AGAB c/B/A/G/ F/ x/ x | d/c/B/A/ G/ x/ x e/d/c/B/ A/ x/ x | f/e/d/c/ B/ x/ x g/f/e/d/ c/ x/ x | %61
 a/f/e/f/ c/f/e/f/ a/f/e/f/ c/f/e/f/ | g/e/d/e/ c/e/d/e/ g/e/d/e/ c/e/d/e/ | %63
 a/f/e/f/ c/f/e/f/ a/f/e/f/ c/f/e/f/ | g/e/d/e/ c/e/d/e/ g/e/d/e/ c/e/d/e/ | %65
 f/g/f/e/ d/ x/ x x2 f/a/f/d/ | x2 f/a/f/d/ x2 e/g/e/c/ | x2 e/g/e/c/ x2 d/f/d/B/ | %68
 x2 d/f/d/B/ x3/2 x/ ^c/e/c/B/ | x3/2 x/ ^c/e/c/B/ z/ a/g/a/ f/a/e/a/ | %70
 d/a/^c/a/ d/a/e/a/ f/a/A/a/ =B/a/^c/a/ | d/a/^c/a/ de d=c BA | %72
 B/A/G/=F/ E/D/^C/=B,/[I:staff +1] A,/[I:staff -1] x/ x[I:staff +1] G,/_B,/G,/E,/ | %73
[I:staff -1] x2[I:staff +1] G,/B,/G,/E,/[I:staff -1] x2[I:staff +1] A,/D/A,/F,/ | %74
[I:staff -1] x2[I:staff +1] A,/D/A,/F,/[I:staff -1] x2[I:staff +1] G,/B,/G,/E,/ | %75
[I:staff -1] x2[I:staff +1] G,/B,/G,/E,/[I:staff -1] x2[I:staff +1] A,/D/A,/F,/ | %76
[I:staff -1] x2[I:staff +1] A,/D/A,/F,/[I:staff -1] x2[I:staff +1] B,/^C/B,/G,/ | %77
[I:staff -1] x2[I:staff +1] B,/^C/B,/G,/[I:staff -1] x2 D/F/D/[I:staff +1]A,/ | %78
[I:staff -1] x2 D/F/D/[I:staff +1]A,/[I:staff -1] x2[I:staff +1] B,/^C/B,/G,/ | %79
[I:staff -1] x2[I:staff +1] B,/^C/B,/G,/[I:staff -1] x2 D/F/D/[I:staff +1]A,/ | %80
[I:staff -1] x2 D/F/D/[I:staff +1]A,/[I:staff -1] x2 ^C/E/C/B,/ | x2 ^C/E/C/B,/ x2 D/F/D/ x/ | %82
 x/[I:staff +1] D/B,/[I:staff -1] x[I:staff +1] A,/F,/[I:staff -1] x[I:staff +1] D,/A,,/[I:staff -1] x[I:staff +1] D,/^C,/=B,,/ | %83
[I:staff -1] x/[I:staff +1] _B,/A,/G,/[I:staff -1] x/[I:staff +1] G,/F,/E,/[I:staff -1] x/[I:staff +1] B,/A,/G,/[I:staff -1] x/[I:staff +1] G,/F,/E,/ | %84
[I:staff -1] x2 x/ F/E/D/ A/ x3/2 z/ e/d/^c/ | d/_e/4d/4=c/4_B/4A/4G/4 ^FA- AGc=B | _ede=B cBcd | %87
 _edef !trill(!Tg4- | g8- | g4- g/g/f/g/ _e/f/d/e/ | c/f/_e/f/ d/e/c/d/ _B/_e/d/e/ c/d/B/c/ | %91
 A/d/c/d/ B/c/A/B/ G/B/A/B/ c/B/A/G/ | ^FA d/G/c/^F/ B/G/d/A/ B/G/A/^F/ | %93
 G/d/^F/d/ G/d/A/d/ B/G/d/A/ B/G/c/A/ | d/c/B/A/ B/A/B/G/ A/B/c/d/ _e/d/c/d/ | %95
 B/c/A/B/ G=B c/_e/f/g/ _a/g/f/g/ | _e/f/d/e/ c_B AB- BA- | AG- G^F =F_E- ED/B/ | %98
 A/B/A/G/ ^F/_e/d/c/ B/a/g/^f/ g>=f | _e/f/d/e/ ^c2 d2 =c2 | B2 A^c d=e f2 | e4 d3 f | %102
 gd^cd ed^cd | ed^cd egfe | Bedd ^c2 de | fef^c dcde | fefg a/b/g/a/ f/g/e/f/ | %107
 d/A/^c/A/ d/A/e/A/ f/A/e/A/ f/A/g/A/ | a/A/e/A/ f/A/g/A/ a2 z2 | z8 | z4 z/ e/d/^c/ d z/ f/ | %111
 e/f/g/a/ b/a/g/a/ fe d/e/f/_e/ | d/c/B/A/ G/A/B/c/ A2 z c- | cB z g _e/f/d/e/ c/B/A/G/ | %114
 A2[I:staff +1] A,/D/A,/G,/[I:staff -1] x2[I:staff +1] A,/D/A,/^F,/ | %115
[I:staff -1] x2[I:staff +1] B,/D/B,/A,/[I:staff -1] x2[I:staff +1] B,/D/C/B,/ | %116
[I:staff -1] x2 C/_E/C/B,/ x2 C/E/C/B,/ | x2 G/B/G/D/ x2 G/B/G/D/ | x2 ^F/A/F/_E/ x2 F/A/F/E/ | %119
 D z dc B2 cd | _e2 fg a2 f_e | d/_e/d/c/ B/c/B/A/ G/c/B/A/ G/A/G/^F/ | %122
 G/=F/=E/D/ ^CE F/G/A/=B/ ^c/d/e/f/ | gf/e/ d^c defg | a^cde fefd | %125
 edd^c[Q:1/4=70]"^70" df[Q:1/4=65]"^65" e2[Q:1/4=60] | %126
[Q:1/4=40]"^40" !fermata!d4 z/4[Q:1/4=75]"_Recitativo" f/4g/4a/4 b/4 x3/4 z/4 c/4d/4_e/4 f/4 x3/4 | %127
 z/4 A/4B/4c/4 d/4 x3/4 z/4 G/4A/4B/4 c/4 x3/4 z/4 F/4G/4A/4 B/4 x3/4 z/4 C/4D/4_E/4 F/4 x3/4 | %128
 z/4[I:staff +1] A,/4B,/4C/4 D/4[I:staff -1] x3/4 z/4 B,/4C/4D/4 _E/4 x3/4 z/4 C/4D/4=E/4 ^F/4 x3/4 z/4[Q:1/4=60]"^60" ^F/4G/4A/4 z/4 c/4[Q:1/4=28]"^28"d/4G/4 | %129
[Q:1/4=52]"^Adagissimo" [B=e]4- [Be]2 d2- | d4 z4 | z2 z [=Bd] c4-[Q:1/4=20] | %132
[Q:1/4=30]"^30" !fermata!c4 z/4[Q:1/4=75]"^Presto" G/4F/4G/4 E/4 x3/4 z/4 A/4G/4A/4 F/4 x3/4 | %133
 z/4 =B/4A/4B/4 G/4 x3/4 z/4 c/4=B/4c/4 z/4 d/4c/4d/4 z/4 e/4d/4e/4 z/4 f/4e/4f/4 z/4 g/4e/4g/4 e/4 x3/4 | %134
 z/4 d/4c/4d/4 =B/4 x3/4 z/4 c/4=B/4c/4 A/4 x3/4 z/4 =B/4A/4B/4 z/4 A/4=G/4A/4 z/4 ^G/4^F/4G/4 E/4 x3/4 | %135
 z/4 D/4C/4=B,/4 z/4 E/4D/4C/4 z/4 F/4E/4D/4 z/4 =G/4F/4E/4 z/4 A/4G/4F/4 z/4[Q:1/4=57]"^57" G/4A/4=B/4[Q:1/4=35]"^Adagio" c2 | %136
[Q:1/4=75]"^Vivace" ^c x cc d x dd | =B x3/4 x/8 x/8 =BB c x cc | A x AA _B x BB | B x BB A x AA- | %140
[Q:1/4=30]"^Molto adagio" A2 G4 =F2 | E4[Q:1/4=25]"^25" D4- | !fermata![A,D]8 |] %143
V:2
[I:staff -1] !fermata!MA[I:staff +1] z/4[I:staff -1] G/8F/8E/8D/8^C/4 D/[I:staff +1] !fermata!z/ z !fermata!MA, z/4 E,/4F,/4^C,/4 D,/ !fermata!z/ z | %1
 !fermata!MA,, z/4 G,,/8F,,/8E,,/8D,,/8^C,,/4 D,,/ !fermata!z/ z (7:2:5z2!ped! ^C,2- E,2- G,2- x6 | %2
 [E,G,-]2!ped-up! G,/E,/^F, z2 z z/ ^C,/ | %3
 (3D,/E,/^C,/ (3D,/E,/C,/ (3D,/E,/C,/ D,/E,/ (3F,/G,/E,/ (3F,/G,/E,/ (3F,/G,/E,/ F,/G,/ | %4
 (3A,/B,/G,/ (3A,/B,/G,/ (3A,/B,/G,/ A,/ !fermata!z/ z2 z z/[K:treble] ^C/ | %5
 (3D/E/^C/ (3D/E/C/ (3D/E/C/ D/E/ (3F/G/E/ (3F/G/E/ (3F/G/E/ F/G/ | %6
 (3A/B/G/ (3A/B/G/ (3A/B/G/ A/ !fermata!z/ z2 z z/ a/ | %7
 (3G/B/E/ (3G/B/E/ (3F/A/D/ (3F/A/D/ (3E/G/C/ (3E/G/C/ (3D/F/B,/ (3D/F/B,/ | %8
[K:bass] (3C/E/A,/ (3C/E/A,/ (3B,/D/G,/ (3B,/D/G,/ (3A,/C/F,/ (3A,/C/F,/ (3G,/B,/E,/ (3G,/B,/E,/ | %9
 (3F,/A,/D,/ (3F,/A,/D,/ (3E,/G,/^C,/ (3E,/G,/C,/ z2 [G,B,]2- | [G,B,]2 z2 z4 | %11
 !fermata![F,A,]2 z2[K:treble] z/4 A/A/A/A/ A/A/A/A/4 | z/4 A/A/A/A/ A/A/A/A/ A/A/A/A/ A/A/A/A/4 | %13
 z/4 A/A/A/A/ A/A/A/A/ A/A/A/A/ A/A/A/A/4 | z/4 A/A/A/A/ A/A/A/A/ A/A/A/A/ A/A/A/A/4 | %15
[K:bass] z[I:staff -1] D/4[I:staff +1] x/ x/4[I:staff -1] =C/4[I:staff +1] x3/4[I:staff -1] B,/4[I:staff +1] x3/4 A,/4[I:staff -1]^C/4[I:staff +1] x/[I:staff -1] D/[I:staff +1] z/ A,/ z/ B,/ z/ | %16
 E,[I:staff -1] D/4[I:staff +1] x/ x/4[I:staff -1] =C/4[I:staff +1] x3/4[I:staff -1] B,/4[I:staff +1] x3/4 A,/4[I:staff -1]^C/4[I:staff +1] x/[I:staff -1] D/[I:staff +1] z/ A,/ z/ B,/ z/ | %17
 E,2 z2 z4 | %18
 x/4[I:staff -1] A/4=B/4^c/4 d/4[I:staff +1] x/4 x/ x[I:staff -1] d/[I:staff +1] z/[I:staff -1] A/[I:staff +1] z/[I:staff -1] _B/[I:staff +1] z/[I:staff -1] E d/4[I:staff +1] x/4 x/ | %19
[I:staff -1] =c/4[I:staff +1] x/4 x/[I:staff -1] B/4[I:staff +1] x/4 x/[I:staff -1] A/4^c/4[I:staff +1] x/[I:staff -1] d/[I:staff +1] z/[I:staff -1] A/[I:staff +1] z/[I:staff -1] B/[I:staff +1] z/[I:staff -1] E[I:staff +1][=B,D] | %20
 E2 z2 z4 |[K:treble] G4 (3E/G/E/ (3^C/E/C/ (3E/G/E/ (3C/E/C/ | %22
 (3E/G/E/ (3^C/E/C/ (3E/G/E/ (3C/E/C/[K:bass] (3B,/^C/B,/ (3G,/B,/G,/ (3B,/C/B,/ (3G,/B,/G,/ | %23
 (3B,/^C/B,/ (3G,/B,/G,/ (3B,/C/B,/ (3G,/B,/G,/ (3E,/G,/E,/ (3^C,/E,/C,/ (3E,/G,/E,/ (3C,/E,/C,/ | %24
 (3E,/G,/E,/ (3^C,/E,/C,/ (3E,/G,/E,/ (3C,/E,/C,/ (3E,/G,/E,/ (3G,/B,/G,/ (3E,/G,/E,/ (3G,/B,/G,/ | %25
 (3E,/G,/E,/ (3G,/B,/G,/ (3E,/G,/E,/ (3G,/B,/G,/ (3E,/G,/E,/ (3G,/E,/G,/ (3B,/^C/B,/ (3C/B,/C/ | %26
 (3E/^C/E/ (3C/E/C/ (3E/C/E/ (3C/E/C/ A,2 A,2 | %27
[I:staff -1] [DG]2[I:staff +1] z2[I:staff -1] [^CE]2[I:staff +1] z2 | z2 z z/ A,/ A,A,- A,>G,- | %29
 G,F,/E,/ F,2[K:treble]"^Fuga" z/ A/G/A/ F/A/E/A/ | D/A/^C/A/ D/A/E/A/ F/A/A,/A/ =B,/A/^C/A/ | %31
 D/A/^C/A/ D/A/E/A/ F^FG=C |[K:bass] B,A,B,C D^F,G,A, | B,A,B,^F, G,/G/G,/G/ D/G/D/G/ | %34
 C/_E/C/E/ C/E/C/E/ C/F/C/F/ C/F/C/F/ | B,/D/B,/D/ B,/D/B,/D/ B,/=E/B,/E/ B,/E/B,/E/ | %36
 A,/^C/A,/C/ A,/C/A,/C/ F,/D/F,/D/ F,/D/F,/D/ | %37
 E,/B,/E,/B,/ E,/B,/E,/B,/ D,/A,/D,/A,/ D,/A,/D,/A,/ | E,/G,/E,/G,/ E,/G,/E,/G,/ A,A,A,A, | %39
 A,A,A,A, A,A,A,A, | A,A,A,A, A,2 D2 | D2 z2 C2 C2 | C2 z2 B,2 B,2 | B,2 z2 A,2 A,2 | %44
 A,2 z D ^CCDD | E2 z D ^CCDD | E2 z2 z4 | %47
[I:staff -1] F2 D2[I:staff +1] A,/[I:staff -1]=A/G/A/ ^C/G/F/E/ | %48
[I:staff +1] z/ D/^C/D/ A,/A,/G,/A,/ ^F,/D/^C/D/ G,/=F/_E/D/ | %49
 ^C/=E/A,/C/ D,/_E/D/=C/ =B,/D/G,/B,/ C,/D/C/_B,/ | %50
 A,/C/^F,/A,/ D,/C/B,/A,/[K:treble] B,/A/G/^F/ G/B,/A,/G,/ | D2 z[K:bass] D DDDC | B,DDC B,DDC | %53
 B,2 z2 z4 | z8 | z8 | z4 z/ C/B,/C/ A,/C/G,/C/ | F,/C/E,/C/ F,/C/G,/C/ A,/C/C,/C/ D,/C/E,/C/ | %58
 F,/C/E,/C/ F,/C/G,/C/ A,2 x/[I:staff -1] _E/D/C/ | %59
 B,[I:staff +1] x x/[I:staff -1] F/=E/D/ C[I:staff +1] x x/[I:staff -1] G/F/E/ | %60
 D[I:staff +1] x x/[I:staff -1] A/G/F/ E[I:staff +1] x x/[I:staff -1] B/A/G/ | %61
 F[I:staff +1] z[I:staff -1] c[I:staff +1] z[I:staff -1] F[I:staff +1] z[I:staff -1] c[I:staff +1] z | %62
[I:staff -1] E[I:staff +1] z[I:staff -1] c[I:staff +1] z[I:staff -1] E[I:staff +1] z[I:staff -1] c[I:staff +1] z | %63
[I:staff -1] F[I:staff +1] z[I:staff -1] c[I:staff +1] z[I:staff -1] F[I:staff +1] z[I:staff -1] c[I:staff +1] z | %64
[I:staff -1] E[I:staff +1] z[I:staff -1] c[I:staff +1] z[I:staff -1] E[I:staff +1] z[I:staff -1] c[I:staff +1] z | %65
[I:staff -1] D[I:staff +1] x3/2[I:staff -1] c/=B/A/ B/G/B/d/[I:staff +1] x2 | %66
[I:staff -1] =B/G/B/d/[I:staff +1] x3/2 x/[I:staff -1] _B/G/B/c/[I:staff +1] x2 | %67
[I:staff -1] B/G/B/c/[I:staff +1] x2[I:staff -1] A/F/A/c/[I:staff +1] x2 | %68
[I:staff -1] A/F/A/c/[I:staff +1] x2[I:staff -1] G/E/G/B/[I:staff +1] x2 | %69
[I:staff -1] G/E/G/B/[I:staff +1] x2[K:treble][I:staff -1] A[I:staff +1]^cdG | FA=B^c dcde | %71
 fef[I:staff -1]^c[I:staff +1] z/ ^F/E/F/[K:bass] z/ D/=C/D/ | %72
 B,/C/B,/A,/ G,/=F,/E,/D,/ ^C,/A,,/C,/E,/ x2 | ^C,/A,,/C,/E,/ x2 D,/A,,/D,/F,/ x2 | %74
 D,/A,,/D,/F,/ x3/2 x/ ^C,/A,,/C,/E,/ x2 | ^C,/A,,/C,/E,/ x2 D,/A,,/D,/F,/ x2 | %76
 D,/A,,/D,/F,/ x2 E,/^C,/E,/G,/ x2 | E,/^C,/E,/G,/ x2 F,/D,/F,/A,/ x2 | %78
 F,/D,/F,/A,/ x2 E,/^C,/E,/G,/ x2 | E,/^C,/E,/G,/ x2 F,/D,/F,/A,/ x2 | %80
 F,/D,/F,/A,/ x2 G,/E,/G,/B,/ x2 | G,/E,/G,/B,/ x2 A,/F,/A,/^C/ x3/2 A,/ | %82
 B,/ x G,/F,/ x D,/A,,/ x F,,/D,,/ x3/2 | ^C,/ x3/2 F,/ x3/2 D,/ x3/2 F,/ x3/2 | %84
 D,/E,/4F,/4G,/4A,/4=B,/4^C/4 D/ x3/2[K:treble] A,/=B,/4^C/4D/4E/4F/4G/4 A/G/F/E/ | %85
 F z z/ _E/D/=C/ B,=B,CG | !trill(!TG8- | G4- G/G/F/G/ _E/G/D/G/ | %88
 C/G/=B,/G/ C/G/D/G/ _E/G/G,/G/ A,/G/=B,/G/ | C/G/=B,/G/ C/G/D/G/ _ED G/_A/F/G/ | %90
 _EC F/G/E/F/ D_B, E/F/D/E/ | C^F G/A/=F/G/ _E/G/^F/G/ A/G/F/E/ | %92
[K:bass] z/ D/C/D/ B,/D/A,/D/ G,/D/^F,/D/ G,/D/A,/D/ | %93
 B,/D/D,/D/ E,/D/^F,/D/ G,/D/F,/D/ G,/D/A,/D/ | B,A, G,4 ^F,2 | G,A, B,/A,/G,/=F,/ _E,_E D2 | %96
 CD _E/F/D/E/ C/E/D/F/ G/F/E/F/ | D/B,/_E/D/ ^C/A,/D/=C/ A,/G,/C/_B,/ A,/F,/B,/D/ | %98
 C/D/C/B,/ A,/C/B,/A,/ G,/C/B,/A,/ B,/C/B,/A,/ | G,/A,/F,/G,/ =E,2 z/ _E/D/=C/ D/C/B,/A,/ | %100
 G,2 A,/B,/A,/G,/ =F,/G,/E,/A,/ D,2 | %101
[I:staff -1] G/A/G/A/ B/A/G/A/ F/G/E/F/ D/[I:staff +1]=C/B,/A,/ | %102
 B,/A,/G,/F,/ E,/F,/E,/D,/ ^C,/A,,/D,/A,,/ E,/A,,/F,/A,,/ | %103
 G,/A,,/F,/A,,/ E,/A,,/D,/A,,/ ^C,/A,/A,,/A,/ D,/A,/F,/D/ | %104
 G,/D/E,/^C/ F,/D/D,/D/[K:treble] E/A/G/A/ F/A/E/A/ | D/A/^C/A/ D/A/E/A/ F/A/A,/A/ =B,/A/^C/A/ | %106
 D/A/^C/A/ D/A/E/A/ FEDG | FEF^C DCD=B, | ^CGFD ^C2 z2 | z8 | z4 z/ G/F/E/ F/^C/D- | %111
 D2 ^C2 D/A/=B/^c/ d=c | F3[K:bass] _E- E/C/A,/F,/ A,/C/E/C/ | %113
 D/B,/G,/D,/ G,/B,/D/G/ C/D/B,/C/ A,/G,/^F,/=E,/ | ^F,/D,/F,/G,/ x2 F,/D,/F,/G,/ x2 | %115
 G,/D,/G,/A,/ x2 G,/D,/G,/A,/ x2 | A,/^F,/A,/B,/ x2 A,/F,/A,/B,/ x2 | %117
 A,/B,/D/^F/ x2 B,/G,/B,/D/ x2 | C/A,/C/_E/ x2 C/A,/C/E/ x2 | ^F, z G,A, B,2 _E=B, | %120
 G,2 C_B, A,2 B,C | D/G/F/_E/ D/E/D/C/ B,/E/D/C/ B,/C/B,/A,/ | %122
 B,/A,/G,/F,/ =E,G, A,/=B,/^C/D/[K:treble] E/F/G/A/ | _BA/G/ F/A/E/A/ D/A/^C/A/ D/A/E/A/ | %124
 F/A/A,/A/ =B,/A/^C/A/ D/A/C/A/ D/A/=B,/A/ | ^CDGE FABA | %126
[K:bass] !fermata!D4 x z/4[I:staff -1] A/4B/4c/4 d/4[I:staff +1] x/4 x/ z/4[I:staff -1] F/4G/4A/4 | %127
 B/4[I:staff +1] x3/4 z/4[I:staff -1] A/4G/4F/4 _E/4[I:staff +1] x3/4 z/4[I:staff -1] G/4F/4_E/4 D/4[I:staff +1] x3/4 z/4 A,/4B,/4C/4 D/4 x3/4 z/4 F,/4G,/4A,/4 | %128
 B,/4 x3/4 z/4 C/4B,/4A,/4 G,/4 x3/4 z/4 D/4C/4B,/4 A,/4 x3/4 z/4[I:staff -1] _E/4D/4C/4 B,/4[I:staff +1] x3/4 z/ G,/ | %129
 ^C4- C2 D2 | =B,4 z4 | z2 z [^G,=B,] C4- | %132
 !fermata!C4 x z/4[I:staff -1] E/4D/4E/4 C/4[I:staff +1] x/4 x/ z/4[I:staff -1] F/4E/4F/4 | %133
 D/4[I:staff +1] x3/4 z/4[I:staff -1] G/4F/4G/4 E/4[I:staff +1] x3/4[I:staff -1] A/4[I:staff +1] x3/4[I:staff -1] =B/4[I:staff +1] x3/4[I:staff -1] c/4[I:staff +1] x3/4[I:staff -1] d/4[I:staff +1] x3/4 z/4[I:staff -1] c/4=B/4c/4 | %134
 A/4[I:staff +1] x3/4 z/4[I:staff -1] ^G/4^F/4G/4 E/4[I:staff +1] x3/4 z/4[I:staff -1] =F/4E/4F/4 D/4[I:staff +1] x3/4[I:staff -1] C/4[I:staff +1] x3/4[I:staff -1] =B,/4[I:staff +1] x3/4 z/4 C/4=B,/4A,/4 | %135
 ^G,/4 x3/4 A,/4 x3/4 =B,/4 x3/4 C/4 x3/4[I:staff -1] D/4[I:staff +1] x3/4[I:staff -1] E/4[I:staff +1] x3/4 z =G, | %136
 A, A,/4[I:staff -1]^C/4E/4 A/4[I:staff +1] z A, A, A,/4[I:staff -1]D/4F/4 A/4[I:staff +1] z A, | %137
 =B, G,/4=B,/4[I:staff -1]D/4 G/4[I:staff +1] z G, G, G,/4[I:staff -1]C/4E/4 G/4[I:staff +1] z G, | %138
 A, F,/4A,/4[I:staff -1]C/4 F/4[I:staff +1] z F, F, F,/4_B,/4[I:staff -1]E/4 F/4[I:staff +1] z F, | %139
 E, E,/4G,/4B,/4[I:staff -1] ^C/4[I:staff +1] z E, ^F, D,/4A,/4[I:staff -1]D/4 ^F/4[I:staff +1] z ^F, | %140
 G,4 B,2 A,2 | A,4 F,2 G,2 | !fermata!F,8 |] %143
V:3
 Mx x7 | x8 | C,2 D,2 z2 z z/ x/ | x8 | x15/2[K:treble] x/ | x8 | x8 | x8 |[K:bass] x8 | %9
 x6 [^C,E,]2- | [C,E,]2 x6 | D,2 x2[K:treble] x4 | x8 | x8 | x8 |[K:bass] x8 | x8 | x8 | x8 | x8 | %20
 A,2 x6 |[K:treble] ^C4 x4 | x4[K:bass] x4 | x8 | x8 | x8 | x8 | x8 | x8 | D,4[K:treble] x4 | x8 | %31
 x8 |[K:bass] x8 | x8 | x8 | x8 | x8 | x8 | x4 F,E,D,G, | F,E,F,^C, D,C,D,E, | F,E,F,^C, D,2 F,2 | %41
 G,2 z2 C,2 E,2 | F,2 z2 B,,2 D,2 | E,2 z2 A,,2 ^C,2 | D,2 z F, B,B,A,A, | G,2 z A, B,B,A,A, | %46
 ^G,2 x6 | z8 | x8 | x8 | x4[K:treble] x4 | x3[K:bass] x5 | x8 | x8 | x8 | x8 | x8 | x8 | x8 | x8 | %60
 x8 | x8 | x8 | x8 | x8 | x8 | x8 | x8 | x8 | x4[K:treble] x4 | z8 | z2 z/ A/G/A/ x2[K:bass] x2 | %72
 x8 | x8 | x8 | x8 | x8 | x8 | x8 | x8 | x8 | x8 | x8 | x8 | x4[K:treble] x4 | x8 | %86
 x/8 x/8 x/8 x/8 x/8 x/8 x/8 x/8 x/8 x/8 x/8 x/8 x/8 x/8 x/8 x/8 x/8 x/8 x/8 x/8 x/8 x/8 x/8 x/8 x/8 x/8 x/8 x/8 x/8 x/8 x/8 x/8 x/8 x/8 x/8 x/8 x/8 x/8 x/8 x/8 x/8 x/8 x/8 x/8 x/8 x/8 x/8 x/8 x/8 x/8 x/8 x/8 x/8 x/8 x/8 x/8 x/8 x/8 x/8 x/8 x/8 x/8 x/8 x/8 | %87
 x/8 x/8 x/8 x/8 x/8 x/8 x/8 x/8 x/8 x/8 x/8 x/8 x/8 x/8 x/8 x/8 x/8 x/8 x/8 x/8 x/8 x/8 x/8 x/8 x/8 x/8 x/8 x/8 x/8 x/8 x/8 !trill)!x/8- x/ x7/2 | %88
 x8 | x8 | x8 | x8 |[K:bass] x8 | x8 | x8 | x8 | x8 | x8 | x8 | x4 ^F,2 D,2 | G,2 x6 | x8 | x8 | %103
 x8 | x4[K:treble] A,4- | A,8- | A,8- | A,8- | A,4- A,2 z2 | x8 | x8 | x8 | x3[K:bass] x5 | x8 | %114
 x8 | x8 | x8 | x8 | x8 | x8 | x8 | x8 | x6[K:treble] x2 | x8 | x8 | x8 |[K:bass] F,4 x4 | x8 | %128
 x8 | x8 | x8 | x4 E,4- | E,4 x4 | x8 | x8 | x8 | x8 | x8 | x8 | x8 | x8 | x8 | x8 |] %143
V:4
 z8 | z4 D,,4- | D,,4 z4 | z8 | z8 | z8 | z8 | z8 | z8 | z4 D,,4- | D,,2 z2 z4 | %11
 !fermata!D,,2 z2 z4 | z8 | z8 | z8 | z4 z D,C,B,, | A,, z z2 z D,C,B,, | A,,2 z2 z4 | %18
 z2 z D, C,B,,A,, z | z2 z D, C,B,,A,,^G,, | =G,,2 z2 z4 | G,4 z4 | z8 | z8 | z8 | z8 | %26
 z4 G,2 F,2 | B,3 A,/G,/ A,>E, F,/D,/E,/^C,/ | D,/=B,,/^C,/A,,/ _B,,/^G,,/A,,/=G,/ F,D, A,,2 | %29
 D,,4 z4 | z8 | z8 | z8 | z8 | z8 | z8 | z8 | z8 | z8 | z8 | z8 | z8 | z8 | z8 | z8 | z8 | z8 | %47
 z8 | z8 | z8 | z8 | z/ D,/C,/D,/ B,,/D,/A,,/D,/ G,,/D,/^F,,/D,/ G,,/D,/A,,/D,/ | %52
 B,,/D,/D,,/D,/ E,,/D,/^F,,/D,/ G,,/D,/F,,/D,/ G,,/D,/A,,/D,/ | B,,2 z =B,, C,2 z ^C, | %54
 D,2 z D, E,2 z E, | F,A,,B,,D, G,,2 z B,,- | B,,A,,G,,C, F,,2 z2 | z8 | z8 | z8 | z8 | z8 | z8 | %63
 z8 | z8 | z8 | z8 | z8 | z8 | z8 | z8 | z8 | z8 | z8 | z8 | z8 | z8 | z8 | z8 | z8 | z8 | z8 | %82
 z8 | z8 | z8 | z4 z/ G,/=F,/G,/ _E,/G,/D,/G,/ | %86
 C,/G,/=B,,/G,/ C,/G,/D,/G,/ _E,/G,/G,,/G,/ A,,/G,/=B,,/G,/ | %87
 C,/G,/=B,,/G,/ C,/G,/D,/G,/ _E,D,C,=B,, | C,D,_E,F, G,=B,,C,D, | _E,D,E,F, G,=B,,C,D, | %90
 _E,=A,,_B,,C, D,G,,A,,B,, | C,D,G,D, _E,B,,A,,C, | D,8- | D,8 | D,2 z G,, C,A,,D,D,, | %95
 G,,2 z G,, C,3 =B,, | C,2 z2 z4 | z8 | z8 | z8 | z8 | z8 | z8 | z8 | z8 | z8 | z8 | z8 | %108
 z4 z/ A,/G,/A,/ F,/A,/E,/A,/ | D,/A,/^C,/A,/ D,/A,/E,/A,/ F,/A,/A,,/A,/ =B,,/A,/^C,/A,/ | %110
 D,/A,/^C,/A,/ D,/A,/E,/A,/ F,2 z F, | G,E,A,A,, D,2 z A,, | B,,G,,C,C,, F,,2 z A,, | %113
 B,,2 z B,, C,2 z A,, | D,2 z2 D,2 z2 | D,2 z2 D,2 z2 | D,2 z2 D,2 z2 | D,2 z2 D,2 z2 | %118
 D,2 z2 D,2 z2 | z/ D,/C,/D,/ _B,,/D,/A,,/D,/ G,,/G,/=F,/G,/ _E,/G,/D,/G,/ | %120
 C,/C,/_B,,/C,/ A,,/C,/G,,/C,/ F,,/F,/_E,/F,/ D,/F,/C,/F,/ | B,,_E,F,F,, G,,C,D,D,, | %122
 G,,2 z/ A,,/G,,/A,,/ F,,D,, A,,2 | D,,8- | D,,4 z2 z D, | A,,F,,G,,A,, F,,D,,G,,A,, | %126
 !fermata!B,,4 z4 | z8 | z8 | (^C,4 F,3) D, | ^G,,4 z/ ^G,/=B,/F,/ G,/D,/F,/=B,,/ | %131
 D,/^G,,/A,, E,,6- | !fermata!E,,4 z4 | z8 | z8 | z4 z2 z E, | G, z z G, F, z z F, | %137
 F, z z F, E, z z E, | E, z z E, D, z z D, | ^C, z z C, =C, z z C, | G,,2 B,,2 E,,2 F,,2 | %141
 A,,4 B,,2 G,,2 | !fermata![D,,D,]8 |] %143
V:5
 x8 | Mx x7 | x8 | x8 | x8 | x8 | x8 | x8 | x8 | x8 | x8 | x8 | x8 | x8 |[K:bass] x8 | %15
 x[K:treble] x7 | x8 | x8 | x8 | x8 | x8 | x8 | x8 | x8 | x8 | x8 | x8 | x8 | x8 | x8 | x8 | x8 | %32
 x8 | x8 | x8 | x8 | x8 | x8 | x8 | x8 | x8 | x8 | x8 | x8 | x8 | x8 | x8 | x8 | x8 | x8 | x8 | %51
 x8 | x8 | x8 | x8 | x8 | x8 | x8 | x8 | x8 | x8 | x8 | x8 | x8 | x8 | x8 | x8 | x8 | x8 | x8 | %70
 x8 | x8 | x8 | x8 | x8 | x8 | x8 | x8 | x8 | x8 | x8 | x8 | x8 | x8 | x8 | x8 | x8 | x8 | x8 | %89
 x8 | x8 | x8 | x8 | x8 | x8 | x8 | x8 | x8 | x8 | x8 | x8 | x8 | x8 | x8 | x8 | x8 | x8 | x8 | %108
 x8 | x8 | x8 | x8 | x8 | x8 | x8 | x8 | x8 | x8 | x8 | x8 | x8 | x8 | x8 | x8 | x8 | x8 | x8 | %127
 x8 | x15/2 d/ | x8 | x8 | x8 | x8 | x8 | x8 | x8 | x8 | x8 | x8 | x8 | x8 | x8 | x8 |] %143
V:6
 x8 | x8 | B,2 [A,D]2 x4 | x8 | x8 | x8 | x8 | x8 | x8 | x6 [^CEG]2- | %10
 [CEG]2 x4 x/8 x/8 x/8 x/8 x/8 x/8 x/8"^60" x3/8- x/4 x/ | D2 x6 | x8 | x8 |[K:bass] x8 | %15
 x[K:treble] x7 | ^C x7 | ^C2 x6 | x8 | x8 | A2 x6 | B4 x4 | x8 | x8 | x8 | x8 | x4 [^CE]2 [DF]2 | %27
 x8 | z2 z z/ E/ DD- D"^34"^C |[I:staff +1] A,4[I:staff -1] z4 | z8 | z4 z/ d/c/d/ B/d/A/d/ | %32
 G/d/^F/d/ G/d/A/d/ B/d/D/d/ E/d/^F/d/ | G/d/^F/d/ G/d/A/d/ .B.d.B.d | _eGeG cAcA | dFdF BGBG | %36
 ^cEcE AFAF | G^CGC FDFD | E[I:staff +1]B,[I:staff -1]E[I:staff +1]B, x4 | x8 | x8 | x8 | x8 | x8 | %44
 x8 | x8 | x2[I:staff -1] z2 z/ A/=G/A/ E/G/F/E/ | x8 | F2 E2 DA- AG- | G2 ^F2 =F2 _E2- | %50
 ED^Fc- cB/A/ BB | A2 dc BAB^F | G^FGA BAB^F | G/B/A/B/ G/A/=F/G/ E/c/B/c/ A/B/G/A/ | %54
 F/d/c/d/ B/c/A/B/ G/e/d/e/ c/d/B/c/ | AF B/A/G/F/ G/B/G/F/ =E/G/E/D/ | C/D/E/F/ GE F2 x2 | x8 | %58
 x8 | x8 | x8 | x8 | x8 | x8 | x8 | x8 | x8 | x8 | x8 | x8 | x8 | x4 dA G^F | x8 | x8 | x8 | x8 | %76
 x8 | x8 | x8 | x8 | x8 | x8 | x8 | x8 | x8 | x8 | x8 | %87
 x4 x/8 x/8 x/8 x/8 x/8 x/8 x/8 x/8 x/8 x/8 x/8 x/8 x/8 x/8 x/8 x/8 x/8 x/8 x/8 x/8 x/8 x/8 x/8 x/8 x/8 x/8 x/8 x/8 x/8 x/8 x/8 x/8 | %88
 x/8 x/8 x/8 x/8 x/8 x/8 x/8 x/8 x/8 x/8 x/8 x/8 x/8 x/8 x/8 x/8 x/8 x/8 x/8 x/8 x/8 x/8 x/8 x/8 x/8 x/8 x/8 x/8 x/8 x/8 x/8 x/8 x/8 x/8 x/8 x/8 x/8 x/8 x/8 x/8 x/8 x/8 x/8 x/8 x/8 x/8 x/8 x/8 x/8 x/8 x/8 x/8 x/8 x/8 x/8 x/8 x/8 x/8 x/8 x/8 x/8 x/8 x/8 x/8 | %89
 x/8 x/8 x/8 x/8 x/8 x/8 x/8 x/8 x/8 x/8 x/8 x/8 x/8 x/8 x/8 x/8 x/8 x/8 x/8 x/8 x/8 x/8 x/8 x/8 x/8 x/8 x/8 x/8 x/8 x/8 x/8 !trill)!x/8- x/ x7/2 | %90
 x8 | x8 | x8 | x8 | x8 | x8 | x8 | x8 | x8 | z2 z/ B/A/G/ A2 ^F2 | G/=F/_E/D/ ^CD FG A/G/A/F/ | %101
 x8 | GAGF GFEA | BAGF AedA | GGAF x4 | x8 | x8 | x8 | x8 | x8 | x8 | x8 | x8 | x8 | x8 | x8 | x8 | %117
 x8 | x8 | x2 G^F G2 G=B | c2 c=e f2 BA | B x7 | x8 | x8 | x8 | z ABA Add"^60"=c | F4 x4 | x8 | %128
 x7 B | [=EG]4- [EG]2 F2 | [DF]4 z4 | z2 z [E^G] E4 | x8 | x8 | x8 | x6 z [CEG] | %136
 [EA] x z [EA] [FA] x z [FA] | [DG] x z [DG] [EG] x z [EG] | [CF] x z [CF] [DF] x z [DF] | %139
 [EG] x z [^CEG] [D^F] x z [D^F] | [B,D]4 [^CE]2 D2- | D2 =C2- C2 B,2 | x8 |] %143
V:7
 x8 | x8 | x8 | x8 | x8 | x8 | x8 | x8 | x8 | x8 | x8 | x8 | x8 | x8 |[K:bass] x8 | %15
 x[K:treble] x7 | x8 | E2 x6 | x8 | x8 | x8 | ^c4- x4 | x8 | x8 | x8 | x8 | x8 | x8 | x8 | x8 | %30
 x8 | x8 | x8 | x8 | x8 | x8 | x8 | x8 | x8 | x8 | x8 | x8 | x8 | x8 | x8 | x8 | x8 | x8 | x8 | %49
 x8 | x8 | x8 | x8 | x8 | x8 | x8 | x8 | x8 | x8 | x8 | x8 | x8 | x8 | x8 | x8 | x8 | x8 | x8 | %68
 x8 | x8 | x8 | x8 | x8 | x8 | x8 | x8 | x8 | x8 | x8 | x8 | x8 | x8 | x8 | x8 | x8 | x8 | x8 | %87
 x8 | x8 | x8 | x8 | x8 | x8 | x8 | x8 | x8 | x8 | x8 | x8 | x8 | x6 z d- | d2 ^c2 A/B/G/A/ FA | %102
 x8 | x8 | x8 | x8 | x8 | x8 | x8 | x8 | x8 | x8 | x8 | x8 | x8 | x8 | x8 | x8 | x8 | x8 | x8 | %121
 x8 | x8 | x8 | x8 | x8 | B4 x4 | x8 | x8 | x6 A2 | =B4 x4 | x4 A3"^20" =G/F/ | E4 x4 | x8 | x8 | %135
 x8 | x8 | x8 | x8 | x8 | x6 D2 | x8 | x8 |] %143
V:8
 x8 | x8 | x8 | x8 | x15/2[K:treble] x/ | x8 | x8 | x8 |[K:bass] x8 | x8 | x8 | x4[K:treble] x4 | %12
 x8 | x8 | x8 |[K:bass] x8 | x8 | x8 | x8 | x8 | x8 |[K:treble] E4- x4 | x4[K:bass] x4 | x8 | x8 | %25
 x8 | x8 | x8 | x8 | x4[K:treble] x4 | x8 | x8 |[K:bass] x8 | x8 | x8 | x8 | x8 | x8 | x8 | x8 | %40
 x8 | x8 | x8 | x8 | x8 | x8 | x8 | x8 | x8 | x8 | x4[K:treble] x4 | x3[K:bass] x5 | x8 | x8 | x8 | %55
 x8 | x8 | x8 | x8 | x8 | x8 | x8 | x8 | x8 | x8 | x8 | x8 | x8 | x8 | x4[K:treble] x4 | x8 | %71
 x6[K:bass] x2 | x8 | x8 | x8 | x8 | x8 | x8 | x8 | x8 | x8 | x8 | x8 | x8 | x4[K:treble] x4 | x8 | %86
 x8 | x8 | x8 | x8 | x8 | x8 |[K:bass] x8 | x8 | x8 | x8 | x8 | x8 | x8 | x8 | x8 | x8 | x8 | x8 | %104
 x4[K:treble] x4 | x5 x3 | x8 | x8 | x8 | x8 | x8 | x8 | x3[K:bass] x5 | x8 | x8 | x8 | x8 | x8 | %118
 x8 | x8 | x8 | x8 | x6[K:treble] x2 | x8 | x8 | x8 |[K:bass] B,4 x4 | x8 | x8 | x8 | x8 | x4 A,4 | %132
 =G,4 x4 | x8 | x8 | x8 | x8 | x8 | x8 | x8 | x8 | x8 | x8 |] %143
V:9
 x8 | x8 | x8 | x8 | x8 | x8 | x8 | x8 | x8 | x8 | x8 | x8 | x8 | x8 | x8 | x8 | x8 | x8 | x8 | %19
 x8 | x8 | x8 | x8 | x8 | x8 | x8 | x8 | x8 | x8 | x8 | x8 | x8 | x8 | x8 | x8 | x8 | x8 | x8 | %38
 x8 | x8 | x8 | x8 | x8 | x8 | x8 | x8 | x8 | x8 | x8 | x8 | x8 | x8 | x8 | x8 | x8 | x8 | x8 | %57
 x8 | x8 | x8 | x8 | x8 | x8 | x8 | x8 | x8 | x8 | x8 | x8 | x8 | x8 | x8 | x8 | x8 | x8 | x8 | %76
 x8 | x8 | x8 | x8 | x8 | x8 | x8 | x8 | x8 | x8 | x8 | x8 | x8 | x8 | x8 | x8 | x8 | x x7- | x8 | %95
 x8 | x8 | x8 | x8 | x8 | x8 | x8 | x8 | x8 | x8 | x8 | x8 | x8 | x8 | x8 | x8 | x8 | x8 | x8 | %114
 x/ x3/2 x5/2 x3/2 x2 | x/ x3/2 x5/2 x3/2 x2 | x8 | x8 | x8 | x8 | x8 | x8 | x8 | x8 | x8 | x8 | %126
 x8 | x8 | x8 | x8 | x8 | x8 | x8 | x8 | x8 | x8 | x8 | x8 | x8 | x8 | x8 | x8 | x8 |] %143

